_includes/icons/ios-pill.svg

<svg fill="#666" height="50" viewBox="0 0 50 50" width="50" xmlns="http://www.w3.org/2000/svg"><path d="m35 1c-3.5625 0-7.125 1.421875-9.90625 4.09375-.011719.019531-.023437.042969-.03125.0625.003906-.007812-.425781.421875-1 1s-1.359375 1.355469-2.28125 2.28125c-1.84375 1.851563-4.25 4.25-6.65625 6.65625s-4.796875 4.824219-6.65625 6.6875c-.929687.933594-1.726562 1.71875-2.3125 2.3125-.5625.566406-.882812.894531-1.0625 1.09375-.007812.007813-.023437.054688-.03125.0625-5.429688 5.484375-5.441406 14.289063.03125 19.65625 2.6875 2.6875 6.25 4.09375 9.90625 4.09375s7.136719-1.429687 9.90625-4.09375l20.09375-20.09375c5.480469-5.480469 5.492188-14.335937 0-19.71875-2.78125-2.671875-6.34375-4.09375-10-4.09375zm0 2c3.144531 0 6.171875 1.203125 8.59375 3.53125 4.691406 4.617188 4.714844 12.160156 0 16.875l-8.375 8.375-17-16.96875c1.765625-1.769531 3.59375-3.589844 4.96875-4.96875.921875-.925781 1.703125-1.699219 2.28125-2.28125.542969-.550781.847656-.824219 1.03125-1.03125.011719-.011719.050781-.050781.0625-.0625 2.410156-2.285156 5.425781-3.46875 8.4375-3.46875zm-18.1875 13.21875 16.96875 17-10.28125 10.25c-1.085937 1.042969-2.273437 1.855469-3.53125 2.4375-.050781-.503906-.453125-.90625-.96875-.90625-.550781 0-1 .449219-1 1 0 .210938.074219.402344.1875.5625-1.027344.285156-2.09375.4375-3.1875.4375-.53125 0-1.070312-.058594-1.59375-.125.339844-.160156.59375-.476562.59375-.875 0-.550781-.449219-1-1-1s-1 .449219-1 1c0 .261719.085938.507813.25.6875-2.136719-.492187-4.121094-1.558594-5.75-3.1875-1.671875-1.640625-2.734375-3.65625-3.21875-5.78125.179688.179688.441406.28125.71875.28125.550781 0 1-.449219 1-1s-.449219-1-1-1c-.414062 0-.753906.265625-.90625.625-.210937-1.609375-.105469-3.234375.34375-4.8125.160156.113281.351563.1875.5625.1875.550781 0 1-.449219 1-1 0-.515625-.402344-.917969-.90625-.96875.582031-1.246094 1.375-2.40625 2.40625-3.4375.019531-.007812.042969-.019531.0625-.03125.027344-.03125.417969-.472656 1-1.0625s1.382813-1.382812 2.3125-2.3125c1.855469-1.863281 4.25-4.25 6.65625-6.65625.105469-.105469.175781-.207031.28125-.3125zm-.8125 1.78125c-.550781 0-1 .449219-1 1s.449219 1 1 1 1-.449219 1-1-.449219-1-1-1zm-3 3c-.550781 0-1 .449219-1 1s.449219 1 1 1 1-.449219 1-1-.449219-1-1-1zm6 0c-.550781 0-1 .449219-1 1s.449219 1 1 1 1-.449219 1-1-.449219-1-1-1zm-9 3c-.550781 0-1 .449219-1 1s.449219 1 1 1 1-.449219 1-1-.449219-1-1-1zm6 0c-.550781 0-1 .449219-1 1s.449219 1 1 1 1-.449219 1-1-.449219-1-1-1zm6 0c-.550781 0-1 .449219-1 1s.449219 1 1 1 1-.449219 1-1-.449219-1-1-1zm-15 3c-.550781 0-1 .449219-1 1s.449219 1 1 1 1-.449219 1-1-.449219-1-1-1zm6 0c-.550781 0-1 .449219-1 1s.449219 1 1 1 1-.449219 1-1-.449219-1-1-1zm6 0c-.550781 0-1 .449219-1 1s.449219 1 1 1 1-.449219 1-1-.449219-1-1-1zm6 0c-.550781 0-1 .449219-1 1s.449219 1 1 1 1-.449219 1-1-.449219-1-1-1zm-15 3c-.550781 0-1 .449219-1 1s.449219 1 1 1 1-.449219 1-1-.449219-1-1-1zm6 0c-.550781 0-1 .449219-1 1s.449219 1 1 1 1-.449219 1-1-.449219-1-1-1zm6 0c-.550781 0-1 .449219-1 1s.449219 1 1 1 1-.449219 1-1-.449219-1-1-1zm6 0c-.550781 0-1 .449219-1 1s.449219 1 1 1 1-.449219 1-1-.449219-1-1-1zm-21 3c-.550781 0-1 .449219-1 1s.449219 1 1 1 1-.449219 1-1-.449219-1-1-1zm6 0c-.550781 0-1 .449219-1 1s.449219 1 1 1 1-.449219 1-1-.449219-1-1-1zm6 0c-.550781 0-1 .449219-1 1s.449219 1 1 1 1-.449219 1-1-.449219-1-1-1zm6 0c-.550781 0-1 .449219-1 1s.449219 1 1 1 1-.449219 1-1-.449219-1-1-1zm6 0c-.550781 0-1 .449219-1 1s.449219 1 1 1 1-.449219 1-1-.449219-1-1-1zm-21 3c-.550781 0-1 .449219-1 1s.449219 1 1 1 1-.449219 1-1-.449219-1-1-1zm6 0c-.550781 0-1 .449219-1 1s.449219 1 1 1 1-.449219 1-1-.449219-1-1-1zm6 0c-.550781 0-1 .449219-1 1s.449219 1 1 1 1-.449219 1-1-.449219-1-1-1zm6 0c-.550781 0-1 .449219-1 1s.449219 1 1 1 1-.449219 1-1-.449219-1-1-1zm-21 3c-.550781 0-1 .449219-1 1s.449219 1 1 1 1-.449219 1-1-.449219-1-1-1zm6 0c-.550781 0-1 .449219-1 1s.449219 1 1 1 1-.449219 1-1-.449219-1-1-1zm6 0c-.550781 0-1 .449219-1 1s.449219 1 1 1 1-.449219 1-1-.449219-1-1-1zm6 0c-.550781 0-1 .449219-1 1s.449219 1 1 1 1-.449219 1-1-.449219-1-1-1zm-15 3c-.550781 0-1 .449219-1 1s.449219 1 1 1 1-.449219 1-1-.449219-1-1-1zm6 0c-.550781 0-1 .449219-1 1s.449219 1 1 1 1-.449219 1-1-.449219-1-1-1zm6 0c-.550781 0-1 .449219-1 1s.449219 1 1 1 1-.449219 1-1-.449219-1-1-1z"/></svg>

<svg xmlns="http://www.w3.org/2000/svg" viewBox="0 0 50 50" width="50" height="50" fill="#666"><path d="M 35 1 C 31.4375 1 27.875 2.421875 25.09375 5.09375 C 25.082031 5.113281 25.070313 5.136719 25.0625 5.15625 C 25.066406 5.148438 24.636719 5.578125 24.0625 6.15625 C 23.488281 6.734375 22.703125 7.511719 21.78125 8.4375 C 19.9375 10.289063 17.53125 12.6875 15.125 15.09375 C 12.71875 17.5 10.328125 19.917969 8.46875 21.78125 C 7.539063 22.714844 6.742188 23.5 6.15625 24.09375 C 5.59375 24.660156 5.273438 24.988281 5.09375 25.1875 C 5.085938 25.195313 5.070313 25.242188 5.0625 25.25 C -0.367188 30.734375 -0.378906 39.539063 5.09375 44.90625 C 7.78125 47.59375 11.34375 49 15 49 C 18.65625 49 22.136719 47.570313 24.90625 44.90625 L 45 24.8125 C 50.480469 19.332031 50.492188 10.476563 45 5.09375 C 42.21875 2.421875 38.65625 1 35 1 Z M 35 3 C 38.144531 3 41.171875 4.203125 43.59375 6.53125 C 48.285156 11.148438 48.308594 18.691406 43.59375 23.40625 L 35.21875 31.78125 L 18.21875 14.8125 C 19.984375 13.042969 21.8125 11.222656 23.1875 9.84375 C 24.109375 8.917969 24.890625 8.144531 25.46875 7.5625 C 26.011719 7.011719 26.316406 6.738281 26.5 6.53125 C 26.511719 6.519531 26.550781 6.480469 26.5625 6.46875 C 28.972656 4.183594 31.988281 3 35 3 Z M 16.8125 16.21875 L 33.78125 33.21875 L 23.5 43.46875 C 22.414063 44.511719 21.226563 45.324219 19.96875 45.90625 C 19.917969 45.402344 19.515625 45 19 45 C 18.449219 45 18 45.449219 18 46 C 18 46.210938 18.074219 46.402344 18.1875 46.5625 C 17.160156 46.847656 16.09375 47 15 47 C 14.46875 47 13.929688 46.941406 13.40625 46.875 C 13.746094 46.714844 14 46.398438 14 46 C 14 45.449219 13.550781 45 13 45 C 12.449219 45 12 45.449219 12 46 C 12 46.261719 12.085938 46.507813 12.25 46.6875 C 10.113281 46.195313 8.128906 45.128906 6.5 43.5 C 4.828125 41.859375 3.765625 39.84375 3.28125 37.71875 C 3.460938 37.898438 3.722656 38 4 38 C 4.550781 38 5 37.550781 5 37 C 5 36.449219 4.550781 36 4 36 C 3.585938 36 3.246094 36.265625 3.09375 36.625 C 2.882813 35.015625 2.988281 33.390625 3.4375 31.8125 C 3.597656 31.925781 3.789063 32 4 32 C 4.550781 32 5 31.550781 5 31 C 5 30.484375 4.597656 30.082031 4.09375 30.03125 C 4.675781 28.785156 5.46875 27.625 6.5 26.59375 C 6.519531 26.585938 6.542969 26.574219 6.5625 26.5625 C 6.589844 26.53125 6.980469 26.089844 7.5625 25.5 C 8.144531 24.910156 8.945313 24.117188 9.875 23.1875 C 11.730469 21.324219 14.125 18.9375 16.53125 16.53125 C 16.636719 16.425781 16.707031 16.324219 16.8125 16.21875 Z M 16 18 C 15.449219 18 15 18.449219 15 19 C 15 19.550781 15.449219 20 16 20 C 16.550781 20 17 19.550781 17 19 C 17 18.449219 16.550781 18 16 18 Z M 13 21 C 12.449219 21 12 21.449219 12 22 C 12 22.550781 12.449219 23 13 23 C 13.550781 23 14 22.550781 14 22 C 14 21.449219 13.550781 21 13 21 Z M 19 21 C 18.449219 21 18 21.449219 18 22 C 18 22.550781 18.449219 23 19 23 C 19.550781 23 20 22.550781 20 22 C 20 21.449219 19.550781 21 19 21 Z M 10 24 C 9.449219 24 9 24.449219 9 25 C 9 25.550781 9.449219 26 10 26 C 10.550781 26 11 25.550781 11 25 C 11 24.449219 10.550781 24 10 24 Z M 16 24 C 15.449219 24 15 24.449219 15 25 C 15 25.550781 15.449219 26 16 26 C 16.550781 26 17 25.550781 17 25 C 17 24.449219 16.550781 24 16 24 Z M 22 24 C 21.449219 24 21 24.449219 21 25 C 21 25.550781 21.449219 26 22 26 C 22.550781 26 23 25.550781 23 25 C 23 24.449219 22.550781 24 22 24 Z M 7 27 C 6.449219 27 6 27.449219 6 28 C 6 28.550781 6.449219 29 7 29 C 7.550781 29 8 28.550781 8 28 C 8 27.449219 7.550781 27 7 27 Z M 13 27 C 12.449219 27 12 27.449219 12 28 C 12 28.550781 12.449219 29 13 29 C 13.550781 29 14 28.550781 14 28 C 14 27.449219 13.550781 27 13 27 Z M 19 27 C 18.449219 27 18 27.449219 18 28 C 18 28.550781 18.449219 29 19 29 C 19.550781 29 20 28.550781 20 28 C 20 27.449219 19.550781 27 19 27 Z M 25 27 C 24.449219 27 24 27.449219 24 28 C 24 28.550781 24.449219 29 25 29 C 25.550781 29 26 28.550781 26 28 C 26 27.449219 25.550781 27 25 27 Z M 10 30 C 9.449219 30 9 30.449219 9 31 C 9 31.550781 9.449219 32 10 32 C 10.550781 32 11 31.550781 11 31 C 11 30.449219 10.550781 30 10 30 Z M 16 30 C 15.449219 30 15 30.449219 15 31 C 15 31.550781 15.449219 32 16 32 C 16.550781 32 17 31.550781 17 31 C 17 30.449219 16.550781 30 16 30 Z M 22 30 C 21.449219 30 21 30.449219 21 31 C 21 31.550781 21.449219 32 22 32 C 22.550781 32 23 31.550781 23 31 C 23 30.449219 22.550781 30 22 30 Z M 28 30 C 27.449219 30 27 30.449219 27 31 C 27 31.550781 27.449219 32 28 32 C 28.550781 32 29 31.550781 29 31 C 29 30.449219 28.550781 30 28 30 Z M 7 33 C 6.449219 33 6 33.449219 6 34 C 6 34.550781 6.449219 35 7 35 C 7.550781 35 8 34.550781 8 34 C 8 33.449219 7.550781 33 7 33 Z M 13 33 C 12.449219 33 12 33.449219 12 34 C 12 34.550781 12.449219 35 13 35 C 13.550781 35 14 34.550781 14 34 C 14 33.449219 13.550781 33 13 33 Z M 19 33 C 18.449219 33 18 33.449219 18 34 C 18 34.550781 18.449219 35 19 35 C 19.550781 35 20 34.550781 20 34 C 20 33.449219 19.550781 33 19 33 Z M 25 33 C 24.449219 33 24 33.449219 24 34 C 24 34.550781 24.449219 35 25 35 C 25.550781 35 26 34.550781 26 34 C 26 33.449219 25.550781 33 25 33 Z M 31 33 C 30.449219 33 30 33.449219 30 34 C 30 34.550781 30.449219 35 31 35 C 31.550781 35 32 34.550781 32 34 C 32 33.449219 31.550781 33 31 33 Z M 10 36 C 9.449219 36 9 36.449219 9 37 C 9 37.550781 9.449219 38 10 38 C 10.550781 38 11 37.550781 11 37 C 11 36.449219 10.550781 36 10 36 Z M 16 36 C 15.449219 36 15 36.449219 15 37 C 15 37.550781 15.449219 38 16 38 C 16.550781 38 17 37.550781 17 37 C 17 36.449219 16.550781 36 16 36 Z M 22 36 C 21.449219 36 21 36.449219 21 37 C 21 37.550781 21.449219 38 22 38 C 22.550781 38 23 37.550781 23 37 C 23 36.449219 22.550781 36 22 36 Z M 28 36 C 27.449219 36 27 36.449219 27 37 C 27 37.550781 27.449219 38 28 38 C 28.550781 38 29 37.550781 29 37 C 29 36.449219 28.550781 36 28 36 Z M 7 39 C 6.449219 39 6 39.449219 6 40 C 6 40.550781 6.449219 41 7 41 C 7.550781 41 8 40.550781 8 40 C 8 39.449219 7.550781 39 7 39 Z M 13 39 C 12.449219 39 12 39.449219 12 40 C 12 40.550781 12.449219 41 13 41 C 13.550781 41 14 40.550781 14 40 C 14 39.449219 13.550781 39 13 39 Z M 19 39 C 18.449219 39 18 39.449219 18 40 C 18 40.550781 18.449219 41 19 41 C 19.550781 41 20 40.550781 20 40 C 20 39.449219 19.550781 39 19 39 Z M 25 39 C 24.449219 39 24 39.449219 24 40 C 24 40.550781 24.449219 41 25 41 C 25.550781 41 26 40.550781 26 40 C 26 39.449219 25.550781 39 25 39 Z M 10 42 C 9.449219 42 9 42.449219 9 43 C 9 43.550781 9.449219 44 10 44 C 10.550781 44 11 43.550781 11 43 C 11 42.449219 10.550781 42 10 42 Z M 16 42 C 15.449219 42 15 42.449219 15 43 C 15 43.550781 15.449219 44 16 44 C 16.550781 44 17 43.550781 17 43 C 17 42.449219 16.550781 42 16 42 Z M 22 42 C 21.449219 42 21 42.449219 21 43 C 21 43.550781 21.449219 44 22 44 C 22.550781 44 23 43.550781 23 43 C 23 42.449219 22.550781 42 22 42 Z"/></svg>
